assets/img/helikon-logo-name.svg

<svg width="231" height="37" viewBox="0 0 231 37" fill="none" xmlns="http://www.w3.org/2000/svg">
<path fill-rule="evenodd" clip-rule="evenodd" d="M227.194 13.5468C227.275 2.07509 227.285 0.735486 227.901 0.338974C227.983 0.286551 228.075 0.250613 228.179 0.209925C228.212 0.197116 228.246 0.183837 228.281 0.169425C228.868 -0.0703013 229.3 -0.0571584 229.901 0.218608C229.936 0.235038 229.971 0.250337 230.005 0.265134L230.005 0.265331L230.005 0.265445C230.111 0.312316 230.206 0.354195 230.291 0.411103C231.001 0.888315 231.001 2.42236 231 16.8193V16.8195V16.8198L231 18.5129V35.4496L230.317 36.1381C229.498 36.9634 228.749 37.0322 227.782 36.3709C227.329 36.0615 224.115 31.4492 217.759 21.9888L208.402 8.06239L208.302 21.7863L208.3 21.9501V21.9507C208.207 34.6758 208.198 35.9882 207.561 36.4661C207.488 36.5211 207.407 36.565 207.316 36.614L207.306 36.6194C206.812 36.8858 205.773 36.8852 205.278 36.6179L205.218 36.5859C205.127 36.5376 205.045 36.4941 204.971 36.4398C204.284 35.9344 204.284 34.4943 204.284 19.6667V19.6658L204.284 18.6077V18.3798C204.284 2.5739 204.284 1.07917 204.998 0.552917C205.073 0.497977 205.155 0.453592 205.246 0.40458L205.246 0.404505L205.258 0.397796C205.909 0.0471154 207.188 0.135811 207.735 0.569505C208.006 0.784125 212.47 7.27352 217.655 14.9903L227.083 29.0208L227.183 15.0359L227.194 13.5468ZM75.9905 0.918562C76.1904 0.61121 76.552 0.279371 76.794 0.181172C77.4131 -0.0702971 77.8371 -0.0606004 78.4452 0.218608C78.477 0.233217 78.5079 0.247015 78.5379 0.260413C78.6508 0.310869 78.7512 0.355667 78.8402 0.416845C79.5452 0.901122 79.5451 2.41179 79.5444 15.8805L79.5443 17.2778V32.9795L87.5289 32.9884C91.9205 32.9933 95.9073 33.0739 96.3888 33.1676C97.5239 33.3887 98.0568 33.9342 98.084 34.9032C98.1006 35.4974 97.9843 35.7684 97.5514 36.1437L96.9974 36.624L87.0154 36.621C79.3788 36.6187 76.9155 36.558 76.5313 36.3622C75.5135 35.8439 75.5114 35.8058 75.5715 18.0049C75.6241 2.45654 75.6488 1.44398 75.9905 0.918562ZM0.00764786 16.9428C0.0128942 2.37575 0.0134007 0.969351 0.691751 0.452359C0.764242 0.397111 0.844474 0.35202 0.933281 0.302111C0.963342 0.285216 0.994385 0.26777 1.02644 0.24919C1.71322 -0.148869 2.82181 0.0600868 3.36456 0.689773C3.81612 1.21377 3.81652 1.21986 3.81652 8.89677V16.5793H12.3535H20.8904V8.91275C20.8904 1.49845 20.9039 1.22875 21.3008 0.720147C22.0683 -0.263257 23.9203 -0.114245 24.5 0.977886C24.6372 1.23624 24.7069 7.16805 24.7069 18.6004V35.8333L24.1754 36.33C23.4575 37.0006 22.3228 37.004 21.5545 36.3379L20.9909 35.8496L20.9338 27.9354L20.877 20.0213H12.3466H3.81652V27.8321V35.6428L3.22938 36.2346C2.7947 36.6728 2.45161 36.8265 1.90826 36.8265C1.36491 36.8265 1.02182 36.6728 0.587141 36.2346L0 35.6428L0.00703045 18.569L0.00764786 16.9428ZM110.636 0.281196C110.297 0.472734 110.009 0.875228 109.873 1.34597C109.722 1.87078 109.674 7.27434 109.715 18.976L109.775 35.8493L110.339 36.3379C110.731 36.6779 111.146 36.8265 111.704 36.8265C112.755 36.8265 113.414 36.179 113.585 34.9791C113.655 34.4918 113.685 26.6924 113.652 17.6468L113.592 1.20062L113.079 0.683495C112.442 0.0418626 111.371 -0.134478 110.636 0.281196ZM128.966 16.9426V16.9424V16.9421V16.9419V16.9417C128.971 2.37568 128.972 0.969338 129.65 0.452359C129.722 0.397108 129.803 0.352016 129.891 0.302104C129.922 0.285212 129.953 0.267767 129.985 0.24919C130.671 -0.148869 131.78 0.0600868 132.323 0.689773L132.775 1.21419V10.9215C132.775 16.2604 132.842 20.6231 132.925 20.616C133.008 20.6089 136.775 16.0582 141.295 10.503C146.573 4.01699 149.713 0.319449 150.071 0.170025C151.316 -0.349516 152.847 0.890022 152.564 2.18786C152.493 2.5106 151.059 4.45998 149.328 6.58573C147.617 8.68576 145.534 11.2478 144.698 12.2792L143.177 14.1546L148.499 23.6176L149.324 25.0857C154.117 33.6068 154.456 34.2095 154.47 34.8198C154.472 34.8663 154.471 34.9128 154.47 34.9629C154.469 34.9988 154.469 35.0365 154.469 35.0773C154.469 36.6329 152.295 37.4278 151.21 36.2697C150.922 35.9633 148.362 31.5417 145.52 26.4437C142.678 21.3457 140.33 17.2001 140.302 17.2313C140.273 17.2624 138.568 19.3238 136.512 21.8122L132.775 26.3364V30.9896V35.6428L132.188 36.2346C131.753 36.6728 131.41 36.8265 130.866 36.8265C130.323 36.8265 129.98 36.6728 129.545 36.2346L128.958 35.6428L128.965 18.569L128.966 16.9426ZM175.31 0.172049C171.324 0.906615 167.759 3.5027 166.211 6.79752C165.095 9.17231 165.016 9.94353 165.015 18.4016C165.014 25.2135 165.06 26.3935 165.378 27.7574C166.634 33.1549 171.115 36.7184 176.977 36.9824C180.906 37.1591 184.005 36.0087 186.621 33.4033C188.296 31.7349 189.174 30.248 189.705 28.1844C190.621 24.6211 190.63 12.572 189.72 8.98665C188.399 3.78617 183.93 0.293937 178.317 0.0762805C177.187 0.0323442 175.834 0.0754697 175.31 0.172049ZM41.2415 0.38302C40.6847 0.609181 40.3748 1.19028 40.3748 2.00806C40.3748 2.52821 41.4203 4.0836 45.9304 10.2721C48.9858 14.4649 51.5676 18.0027 51.6674 18.1337C51.7904 18.2949 50.0739 20.8527 46.3689 26.0301C43.3549 30.2421 40.7397 33.9803 40.5576 34.3373C40.1418 35.152 40.2761 35.9089 40.9284 36.4262C41.4161 36.8129 41.7756 36.8265 51.5152 36.8265H61.5968L62.0538 36.3363C62.7044 35.6382 62.6731 34.5092 61.9839 33.8143L61.4574 33.2832L53.5606 33.182L45.6639 33.0808L50.6944 26.0955C54.9788 20.1461 55.7252 19.0051 55.727 18.4016C55.7288 17.7931 55.027 16.729 50.7637 10.8767C48.0327 7.12776 45.7982 4.00707 45.7982 3.94208C45.7982 3.87688 49.2843 3.82363 53.545 3.82363C61.4588 3.82363 61.8358 3.79002 62.4137 3.03136C62.6771 2.68554 62.7494 1.63249 62.5465 1.09938C62.2081 0.210329 61.8196 0.178526 51.4828 0.191889C46.0915 0.198975 41.483 0.285024 41.2415 0.38302ZM179.184 3.6229C181.616 4.08777 184.058 5.87416 185.039 7.90616C186.014 9.92662 186.106 10.8505 186.106 18.6042C186.106 26.3106 186.02 27.1197 184.984 29.1665C184.368 30.3827 182.79 31.8428 181.283 32.5907C178.746 33.8499 175.167 33.5868 172.865 31.9723C171.657 31.125 170.631 29.9737 170.064 28.829C169.173 27.0278 169.031 25.5546 169.041 18.1992C169.051 10.7655 169.181 9.66282 170.284 7.61968C171.891 4.64335 175.662 2.94968 179.184 3.6229Z" fill="#111212"/>
</svg>

<svg width="231" height="37" fill="none" xmlns="http://www.w3.org/2000/svg"><path fill-rule="evenodd" clip-rule="evenodd" d="M227.194 13.547c.081-11.472.091-12.812.707-13.208.082-.052.174-.088.278-.13a1.94 1.94 0 0 0 .102-.04c.587-.24 1.019-.226 1.62.05l.104.046c.106.047.201.09.286.146.71.477.71 2.011.709 16.408V35.45l-.683.688c-.819.825-1.568.894-2.535.233-.453-.31-3.667-4.922-10.023-14.382l-9.357-13.927-.1 13.724-.002.164c-.093 12.726-.102 14.038-.739 14.516a1.891 1.891 0 0 1-.245.148l-.01.005c-.494.267-1.533.266-2.028-.001l-.06-.032a1.987 1.987 0 0 1-.247-.146c-.687-.506-.687-1.946-.687-16.773V18.38c0-15.806 0-17.3.714-17.827.075-.055.157-.1.248-.148l.012-.007c.651-.35 1.93-.262 2.477.172.271.214 4.735 6.704 9.92 14.42l9.428 14.03.1-13.984.011-1.49ZM75.991.919c.2-.308.561-.64.803-.738.62-.251 1.043-.242 1.651.038l.093.041c.113.05.213.096.302.157.705.484.705 1.995.704 15.463v17.1l7.985.008c4.392.005 8.378.086 8.86.18 1.135.22 1.668.766 1.695 1.735.017.594-.1.865-.533 1.24l-.554.481-9.982-.003c-7.636-.002-10.1-.063-10.484-.259-1.018-.518-1.02-.556-.96-18.357.053-15.548.078-16.561.42-17.086ZM.007 16.943C.013 2.376.013.969.692.453.764.396.844.351.933.302l.093-.054C1.713-.149 2.822.06 3.365.69c.451.525.452.53.452 8.208v7.682H20.89V8.913c0-7.415.014-7.684.41-8.193.768-.983 2.62-.834 3.2.258.137.258.207 6.19.207 17.622v17.233l-.532.497c-.718.67-1.852.674-2.62.008l-.564-.488-.057-7.915-.057-7.914H3.817v15.621l-.588.593c-.434.438-.777.592-1.32.592-.544 0-.887-.154-1.322-.592L0 35.643l.007-17.074v-1.626ZM110.636.28c-.339.192-.627.594-.763 1.065-.151.525-.199 5.928-.158 17.63l.06 16.873.564.489c.392.34.807.489 1.365.489 1.051 0 1.71-.648 1.881-1.848.07-.487.1-8.287.067-17.332l-.06-16.446-.513-.518c-.637-.641-1.708-.817-2.443-.402Zm18.33 16.662v-.001c.005-14.566.006-15.973.684-16.49.072-.055.153-.1.241-.15l.094-.053c.686-.398 1.795-.189 2.338.44l.452.525v9.707c0 5.34.067 9.702.15 9.695.083-.007 3.85-4.558 8.37-10.113C146.573 4.017 149.713.319 150.071.17c1.245-.52 2.776.72 2.493 2.018-.071.323-1.505 2.272-3.236 4.398-1.711 2.1-3.794 4.662-4.63 5.693l-1.521 1.876 5.322 9.463.825 1.468c4.793 8.52 5.132 9.123 5.146 9.734.002.046.001.093 0 .143l-.001.114c0 1.556-2.174 2.35-3.259 1.193-.288-.307-2.848-4.728-5.69-9.826-2.842-5.098-5.19-9.244-5.218-9.213-.029.031-1.734 2.093-3.79 4.581l-3.737 4.524v9.307l-.587.592c-.435.438-.778.592-1.322.592-.543 0-.886-.154-1.321-.592l-.587-.592.007-17.074.001-1.626ZM175.31.172c-3.986.735-7.551 3.33-9.099 6.626-1.116 2.374-1.195 3.146-1.196 11.604-.001 6.811.045 7.991.363 9.355 1.256 5.398 5.737 8.961 11.599 9.225 3.929.177 7.028-.973 9.644-3.579 1.675-1.668 2.553-3.155 3.084-5.219.916-3.563.925-15.612.015-19.197-1.321-5.2-5.79-8.693-11.403-8.91-1.13-.045-2.483-.002-3.007.095ZM41.241.383c-.556.226-.866.807-.866 1.625 0 .52 1.045 2.076 5.555 8.264 3.056 4.193 5.638 7.73 5.737 7.862.123.16-1.593 2.719-5.298 7.896-3.014 4.212-5.63 7.95-5.811 8.307-.416.815-.282 1.572.37 2.09.488.386.848.4 10.587.4h10.082l.457-.49c.65-.699.62-1.828-.07-2.523l-.527-.53-7.896-.102-7.897-.101 5.03-6.986c4.285-5.949 5.031-7.09 5.033-7.693.002-.609-.7-1.673-4.963-7.525-2.731-3.75-4.966-6.87-4.966-6.935 0-.065 3.486-.118 7.747-.118 7.914 0 8.29-.034 8.869-.793.263-.345.335-1.399.133-1.932C62.208.21 61.82.18 51.483.192c-5.391.007-10 .093-10.241.191Zm137.943 3.24c2.432.465 4.874 2.251 5.855 4.283.975 2.02 1.067 2.945 1.067 10.698 0 7.707-.086 8.516-1.122 10.563-.616 1.216-2.194 2.676-3.701 3.424-2.537 1.259-6.116.996-8.418-.619-1.208-.847-2.234-1.998-2.801-3.143-.891-1.801-1.033-3.274-1.023-10.63.01-7.434.14-8.536 1.243-10.58 1.607-2.976 5.378-4.67 8.9-3.996Z" fill="#111212"/></svg>
